src/assets/filled/Dash.svg

<svg width="24" height="24" viewBox="0 0 24 24"  xmlns="http://www.w3.org/2000/svg">
<path d="M7.11994 3.5H15.9999C19.9999 3.5 21.9999 6 21.9999 9.5V12C21.9999 17 18.9999 20.5 13.4999 20.5H3.93994L4.99994 16.25H12.4399C15.9999 16.25 17.7499 14 17.7499 10.94V10.75C17.7499 9 16.9999 7.75 14.7499 7.75H6.05994L7.11994 3.5Z" />
<path d="M12.41 10.2305H4.70001C3.62001 10.2305 2.68001 10.9705 2.41001 12.0105L2.16001 13.0305C2.07001 13.4005 2.35001 13.7605 2.73001 13.7605H10.44C11.52 13.7605 12.46 13.0205 12.73 11.9805L12.98 10.9605C13.08 10.5905 12.79 10.2305 12.41 10.2305Z" />
</svg>

<?xml version="1.0" encoding="UTF-8"?>
<svg width="24" height="24" viewBox="0 0 24 24" xmlns="http://www.w3.org/2000/svg">
 <path d="m7.1199 3.5h8.88c4 0 6 2.5 6 6v2.5c0 5-3 8.5-8.5 8.5h-9.56l1.06-4.25h7.44c3.56 0 5.31-2.25 5.31-5.31v-0.19c0-1.75-0.75-3-3-3h-8.69l1.06-4.25z"/>
 <path d="m12.41 10.23h-7.71c-1.08 0-2.02 0.74-2.29 1.78l-0.25 1.02c-0.09 0.37 0.19 0.73 0.57 0.73h7.71c1.08 0 2.02-0.74 2.29-1.78l0.25-1.02c0.1-0.37-0.19-0.73-0.57-0.73z"/>
</svg>
